X:7162
T:The Old Torn Petticoat
O:england
C:Trad
R:Reel
M:C
K:ADor
L:1/8
ed | ((3cBA) ((3BAG) AG ED | ((3EFG) AB cd ed | ((3cBA) ((3BAG) AG ED |\
|1 ((3EFG) AB A2 ed :|2 ((3EFG) AB A4 |
|: ((3Bcd) ef ge d2 | ea ag ag ed | ((3Bcd) ef ge d2 | ea ag a4 |
((3Bcd) ef ge d2 | ea ag ag ed | ((3cBA) ((3BAG) AG ED | ((3EFG) AB A4 :
|


